X: 4322
T: Bog Road To Meelick, The
R: reel
M: 4/4
K: Gmajor
|:G3B dB~B2|gBfB eB~d2|c2Ac BAGB|Add^c dedB|
G3B dB~B2|gBfB eB~d2|cBAc BAGB|1 AGFA G3F:|2 AGFA G2Bd||
|:g3f gdBd|gBfB eB~d2|c2Ac BAGB|A2d^c ded2|
[1 g3f gdBd|gBfB eB~d2|c2Ac BAGB|AGFA G2Bd:|
[2 G3B dB~B2|gBfB eB~d2|cBAc BAGB|AGFA G4||

